X: 43171
T: Winter's End, The
R: hornpipe
M: 4/4
K: Gmajor
GA|"G"B3A B3A|"Em"B2 cB "Am"A3G|"D"A5 "D/F# G"Bd|"Em"e3d B3A|
"G/D"GA"G"Bd "C"e4|e2 "Bm"fg "Am"e3e|"D/F#"a3f "G"d3d|"Em"g5 dc|
"G/D"B3c "Am"A3G|"Em"B5 GA|"G/D"B3c "Am"A3G|"D"A4 "G"G4|M:2/4
G4||M:4/4
"G"GFGA "Am"G3A|"Dsus"A5 "D"z2|"G"BABc "Em"B2 BG|"Am"A4 "B7sus"z2|
"D/F#"AGAF "Em"G4|"EmB"GFGD "Em"E4|"Em/D"E4 "C"e4|"Am"edcB "D7/F#"c4|M:2/4
"D"dc GA||M:4/4
"G"B3A B3A|"Em"B2 cB "Am"A3G|"D"A5 "D/F# G"Bd|"Em"e3d B3A|
"G/D"GA"G"Bd "C"e4|e2 "Bm"fg "Am"e3e|"D/F#"a3f "G"d3d|"Em"g5 dc|
"G/D"B3c "Am"A3G|"Em"B5 GA|"G/D"B3c "Am"A3G|"D"A4 "G"G4|M:2/4
G4||M:4/4
K:C"C"cBcd "Dm7"c3d|"Gsus"d5 "G"z2|"C"edef "Am"e3c|"Dm"d5 z2|
"G/B"dcdB "Am"c4|"Am/E"cBcG "A"(A4|"Am/G"A4) "F"(a4|"Dm"a)gfe "Bb"f4|
fedc "C"e4|"Am"edcB "D"dcGA||
K:G
"G"B3A B2 Bd|"Em"e4 "Am"a3b|"D"a4 "D/F#"d4|"Em"e3f e3d|
"G"BABd "C"e4|"C C?B"g4 "Am"a3b|"D/F#"a3f "G"g3d|"Em"e5 dc|
"G"B2 Bc "Am"A3G|"Em"B5 GA|"G/D"B3c "Am"A3G|"D"A4 "G"G4||

